X:570
T:The wren's polka
R:Polka
S:Henrik Norbeck
Z:Transcription:Henrik Norbeck(?), major rearrangement, chords:Mike Long
M:2/4
L:1/8
K:A
"A"Ac EF|"D"A>A Af|"A"ec BA|"E"B/c/B/A/ FE|"A"Ac EF|\
"D"A>A Af|"A"ec "E"BA/B/|[1 "A"cA AE:|[2 "A"cA AB|]
"A"ce ce|"D"a2 af|"A"ec BA|"E"B/c/B/A/ FE|\
"A"ce ce|"D"a2 af|"A"ec "E"BA/B/|"A"cA AB||
"A"ce ce|"D"a2 af|"A"ec BA|"E"B/c/B/A/ FE|\
"A"Ac EF|"D"A>A Af|"A"ec "E"BA/B/|"A"cA AE|]
